X: 23
T: No_119_I_Go_Toward_the_East.krn
N: Derived from No_119_I_Go_Toward_the_East.krn
%%abc-version 2.0
%%abcx-abcm2ps-target-version 5.9.1 (29 Sep 2008)
%%abc-creator hum2abc beta
%%abcx-conversion-date 2019/03/15 08:37:56
%%humdrum-veritas 3421135632
%%humdrum-veritas-data 892906462
%%linebreak <none>
%%barnumbers 0
L: 1/8
M: 3/4
K: C clef=bass
[K:clef=bass][M:3/4]C2CCC2 ||  
[M:2/4](C3/A,/)A,2 ||  
[M:3/4]G,/G,3/G,2D,2 ||  
[M:2/4]G,3D, ||  
[M:3/4]G,2G,A,G,2 ||  
[M:2/4](G,3/F,/)F,2 ||  
[M:3/4]D,/D,3/D,2A,,2 | 
D,4z2 ||  
[M:2/4]D,2D,G, ||  
[M:3/4]{/G,}G,4G,2 | 
D,2C,3/A,,/A,,2 | 
D,2D,D,D,2 | 
D,2C,C,z2 ||  
[M:2/4]D,2D,D, | 
D,C,A,,2 | 
C,3C, | 
C,2z2 | 
C,4- | 
C,4 |]  



